packages/kaspersky-hexa-ui-icons/src/iconsSVGs/24/Weibo.svg

<svg width="24" height="24" viewBox="0 0 24 24" fill="none" xmlns="http://www.w3.org/2000/svg">
<path d="M20.0017 5.99658C18.9131 4.90792 17.3322 4.60886 15.9723 5.10339C15.6157 5.23306 15.2215 5.0491 15.0918 4.69251C14.9622 4.33591 15.1461 3.94173 15.5027 3.81203C17.3455 3.1419 19.4932 3.54488 20.9733 5.02497C22.4534 6.50504 22.8564 8.65275 22.1863 10.4956C22.0566 10.8522 21.6624 11.0361 21.3058 10.9065C20.9492 10.7768 20.7652 10.3826 20.8949 10.026C21.3894 8.6661 21.0904 7.08524 20.0017 5.99658Z" fill="black"/>
<path d="M18.0773 7.91891C17.7399 7.58157 17.2496 7.48783 16.8265 7.6417C16.4699 7.7714 16.0757 7.58744 15.946 7.23084C15.8163 6.87425 16.0003 6.48004 16.3569 6.35037C17.263 6.02087 18.3201 6.2185 19.0489 6.94728C19.7776 7.67605 19.9753 8.7332 19.6458 9.63925C19.5161 9.99585 19.1219 10.1798 18.7653 10.0501C18.4087 9.92046 18.2248 9.52626 18.3544 9.16966C18.5083 8.74652 18.4146 8.25622 18.0773 7.91891Z" fill="black"/>
<path fill-rule="evenodd" clip-rule="evenodd" d="M10.3495 18.1103C12.1189 17.5305 13.1565 15.8499 12.6672 14.3565C12.1779 12.863 10.3469 12.1223 8.57754 12.702C6.8082 13.2817 5.77053 14.9623 6.25985 16.4558C6.74918 17.9492 8.5802 18.69 10.3495 18.1103ZM8.75172 16.9439C9.39497 16.7331 9.77221 16.1221 9.59431 15.5792C9.41642 15.0362 8.75076 14.767 8.10751 14.9777C7.46426 15.1885 7.08702 15.7995 7.26492 16.3424C7.44281 16.8853 8.10848 17.1547 8.75172 16.9439ZM10.5899 14.6784C10.6579 14.886 10.5137 15.1196 10.2677 15.2002C10.0218 15.2808 9.76721 15.1778 9.6992 14.9702C9.63117 14.7626 9.77542 14.529 10.0214 14.4484C10.2674 14.3678 10.5219 14.4707 10.5899 14.6784Z" fill="black"/>
<path fill-rule="evenodd" clip-rule="evenodd" d="M11.2685 6.06535C8.58859 4.18937 1.31138 10.8903 1.50374 15.1768C1.6136 17.6248 3.99308 19.7097 6.899 20.233C7.65063 20.3905 8.50518 20.4908 9.43229 20.501C11.0433 20.5187 12.8802 20.2644 14.7875 19.5601C18.7155 18.2904 19.9444 15.8024 19.7999 14.1967C19.6032 12.0124 17.8517 11.5225 16.8232 11.3289C17.1015 10.9175 17.7466 9.86176 16.8232 8.75158C15.8999 7.64141 13.5699 7.84611 11.5959 9.04199C12.3944 7.7424 12.0771 6.63142 11.2685 6.06535ZM16.2924 14.3162C16.525 16.627 13.8583 18.7877 10.3361 19.1422C6.81399 19.4967 3.77019 17.9108 3.53759 15.6C3.305 13.2892 5.9717 11.1285 9.49384 10.774C13.016 10.4195 16.0598 12.0054 16.2924 14.3162Z" fill="black"/>
</svg>

<svg xmlns="http://www.w3.org/2000/svg" width="24" height="24" fill="none" viewBox="0 0 24 24"><path fill="#000" d="M20.0017 5.9966c-1.0886-1.0887-2.6695-1.3877-4.0294-.8932a.687.687 0 0 1-.4696-1.2914c1.8428-.6701 3.9905-.2671 5.4706 1.213 1.4801 1.48 1.8831 3.6277 1.213 5.4706a.6871.6871 0 0 1-1.2914-.4696c.4945-1.3599.1955-2.9408-.8932-4.0294"/><path fill="#000" d="M18.0773 7.919a1.192 1.192 0 0 0-1.2508-.2773.687.687 0 1 1-.4696-1.2913c.9061-.3295 1.9632-.1319 2.692.5969.7287.7287.9264 1.7859.5969 2.692a.687.687 0 0 1-1.2914-.4696 1.191 1.191 0 0 0-.2771-1.2508"/><path fill="#000" fill-rule="evenodd" d="M10.3495 18.1103c1.7694-.5798 2.807-2.2604 2.3177-3.7538-.4893-1.4935-2.3203-2.2342-4.0897-1.6545s-2.807 2.2603-2.3177 3.7538 2.3204 2.2342 4.0897 1.6545m-1.5978-1.1664c.6433-.2108 1.0205-.8218.8426-1.3647s-.8435-.8122-1.4868-.6015-1.0205.8218-.8426 1.3647c.178.5429.8436.8123 1.4868.6015m1.8382-2.2655c.068.2076-.0762.4412-.3222.5218s-.5005-.0224-.5685-.23.0762-.4412.3222-.5218.5005.0223.5685.23" clip-rule="evenodd"/><path fill="#000" fill-rule="evenodd" d="M11.2685 6.0653c-2.68-1.876-9.9571 4.825-9.7648 9.1115.1099 2.448 2.4894 4.5329 5.3953 5.0562.7516.1575 1.6062.2578 2.5333.268 1.611.0177 3.4479-.2366 5.3552-.9409 3.928-1.2697 5.1569-3.7577 5.0124-5.3634-.1967-2.1843-1.9482-2.6742-2.9767-2.8678.2783-.4114.9234-1.4671 0-2.5773s-3.2533-.9055-5.2273.2904c.7985-1.2996.4812-2.4106-.3274-2.9767m5.0239 8.2509c.2326 2.3108-2.4341 4.4715-5.9563 4.826S3.7701 17.9108 3.5376 15.6c-.2326-2.3108 2.4341-4.4715 5.9562-4.826 3.5222-.3545 6.566 1.2314 6.7986 3.5422" clip-rule="evenodd"/></svg>
